X:1
T:Title
%%score ( 1 2 ) ( 3 4 )
L:1/8
Q:1/4=100
M:4/4
K:F
V:1 treble nm="Midi_20"
V:2 treble 
V:3 bass nm="Midi_20"
V:4 bass 
V:1
"^Psalm 47 (66. 66. 88)""^Henry Lawes\n(1596-1662)" A4 | G2 c2 F2 G2 | A4 || A4 | G2 c2 c2 =B2 | %5
 c4 || c4 | c2 c2 d2 B2 | c4 || c4 | B2 G2 A2 F2 | G4 || G4 A2 B2 | c2 A2 B2 G2 | E4 || F4 | %16
 D2 G2 E2 F2 | A4 G4 | F8 |] %19
V:2
 F4 | F2 E2 D2 E2 | F4 || F4 | E2 E2 G2 G2 | E4 || E4 | E2 F2 F2 G2 | F4 || F4 | D2 G2 F2 F2 | %11
 E4 || E4 F2 F2 | G2 F2 F2 D2 | C4 || C4 | B,2 D2 C2 A,2 | C2 F2 E4 | C8 |] %19
V:3
 C4 | C2 C2 B,2 B,2 | C4 || C4 | C2 C2 D2 D2 | C4 || C4 | C2 A,2 B,2 D2 | C4 || A,4 | %10
 B,2 C2 C2 =B,2 | C4 || C4 C2 B,2 | G,2 C2 B,2 B,2 | G,4 || F,4 | F,2 B,2 G,2 F,2 | F,2 A,2 C4 | %18
 A,8 |] %19
V:4
 F,4 | C,2 A,,2 B,,2 G,2 | F,4 || F,4 | C,2 A,2 G,2 G,2 | C,4 || C,4 | A,2 F,2 B,2 G,2 | A,4 || %9
 F,4 | G,2 E,2 F,2 D,2 | C,4 || C,4 F,2 D,2 | E,2 F,2 D,2 B,,2 | C,4 || A,,4 | B,,2 G,,2 C,2 D,2 | %17
 C,4 C,4 | F,8 |] %19

